X:34
T:Alborada (MQ 003)
R:Alborada
C:Tradicional. Versin de Jos Rendueles
S:Msica Tradicional Asturiana, (C) Tello & Tito. Asturies, 2001.
S:http://pagina.de/MusTradAst <telloytito@asturies.org>
N:Recogida del gaitero Jos Rendueles, es una tpica alborada asturiana de las que tocan habitualmente las parejas de gaitero y tamborilero en las romeras.
A:Asturies
Z:Manolo Quirs 003
M:2/4
L:1/8
Q:1/4=88
K:C
GE/G/
|: c>d c/B/A/B/|cG GE/G/|c>d c/B/A/B/|c2 GE/G/|
c>d c/B/A/B/|cG GE/G/|c>d c/B/A/B/|c2 ed|
c2 ed|c>d c/d/c/d/|c>d c/d/c/d/|c>d c/B/A/B/|
G>G c/B/A/B/|c>G c/B/A/B/|F>G c/B/A/B/|c>G c/B/A/B/|
F>G c/B/A/B/|c/B/A/G/ A/B/c/B/|F>C E/C/E/G/|DD/B,/ D/B,/D/E/|C2 EG|
|: E>G E/G/E/G/|E>G E/G/E/G/|F>G F/G/A/G/ :|
|: E>G c/B/A/B/|c>G c/B/A/B/|F>G c/B/A/B/|c>G c/B/A/B/|
F>G c/B/A/B/|c/B/A/G/ A/B/c/B/|F>C E/C/E/G/|DD/B,/ D/B,/D/E/|[1 C2 GE/G/
:|[2 C4|
